app/assets/images/welcome/motif.svg

<?xml version="1.0" encoding="UTF-8"?>
<svg width="80px" height="80px" viewBox="0 0 80 80" version="1.1" xmlns="http://www.w3.org/2000/svg" xmlns:xlink="http://www.w3.org/1999/xlink">
    <!-- Generator: Sketch 59.1 (86144) - https://sketch.com -->
    <title>illu</title>
    <desc>Created with Sketch.</desc>
    <defs>
        <polygon id="path-1" points="0 80 80 80 80 0 0 0"></polygon>
    </defs>
    <g id="Homepage-particuliers" stroke="none" stroke-width="1" fill="none" fill-rule="evenodd">
        <g id="1A-D-HPparticuliers" transform="translate(-566.000000, -431.000000)">
            <g id="How-it-works-" transform="translate(15.000000, 377.000000)">
                <g id="3" transform="translate(485.000000, 54.000000)">
                    <g id="illu" transform="translate(66.000000, 0.000000)">
                        <path d="M80,40 C80,62.092 62.092,80 40,80 C17.908,80 0,62.092 0,40 C0,17.908 17.908,0 40,0 C62.092,0 80,17.908 80,40" id="Fill-1" fill="#C2F0EB"></path>
                        <path d="M52.9209,28.6992 C52.9619,28.7402 53.0419,28.7802 53.0819,28.8202 L53.0019,28.9812 L51.6329,31.3982 L50.7459,33.0102 L50.1019,34.2182 L50.0219,34.4192 L50.2229,34.4192 L52.8409,34.0562 C54.0899,33.7342 55.6599,33.1312 57.2319,32.0032 L58.2779,31.1972 C58.3189,31.1562 58.3589,31.1162 58.4399,31.0762 C58.5209,31.0762 58.5609,31.1162 58.6419,31.1162 L61.0589,31.3172 L61.0989,31.3172 C68.8729,31.3172 75.1969,24.9932 75.1969,17.1382 C75.1969,9.2842 68.8729,3.0002 61.0989,3.0002 C53.3239,3.0002 46.9999,9.3242 46.9999,17.1782 C46.9999,21.4892 48.9339,25.3562 51.9549,27.9342 L52.9209,28.6992 Z" id="Fill-3" fill="#FFFFFF"></path>
                        <mask id="mask-2" fill="white">
                            <use xlink:href="#path-1"></use>
                        </mask>
                        <g id="Clip-6"></g>
                        <polygon id="Fill-5" fill="#FF7D00" mask="url(#mask-2)" points="54 11.853 59.226 11.853 59.226 8.853 54 8.853"></polygon>
                        <polygon id="Fill-7" fill="#222E5C" mask="url(#mask-2)" points="54 19.003 71.716 19.003 71.716 16.003 54 16.003"></polygon>
                        <polygon id="Fill-8" fill="#222E5C" mask="url(#mask-2)" points="54 26.153 66 26.153 66 23.153 54 23.153"></polygon>
                        <path d="M47.5088,49.0771 C49.6948,51.9801 50.7868,55.5541 50.7868,59.7941 C50.7868,65.9291 48.4708,70.7571 43.8378,74.2801 C39.2038,77.8041 32.9078,79.5651 24.9478,79.5651 C20.1188,79.5651 15.4868,78.8631 11.0498,77.4611 C6.6118,76.0581 3.0238,74.1501 0.2828,71.7351 L5.1778,60.7731 C11.3748,65.2751 17.7378,67.5261 24.2628,67.5261 C28.5038,67.5261 31.5868,66.7921 33.5118,65.3241 C35.4358,63.8561 36.3998,61.5231 36.3998,58.3261 C36.3998,55.2601 35.4358,53.0251 33.5118,51.6211 C31.5868,50.2191 28.5038,49.5171 24.2628,49.5171 L14.2798,49.5171 L14.2798,37.5761 L22.5998,37.5761 C26.6448,37.5761 29.6468,36.8761 31.6038,35.4721 C33.5608,34.0691 34.5398,31.9331 34.5398,29.0601 C34.5398,26.1901 33.6738,24.0051 31.9458,22.5041 C30.2168,21.0031 27.7528,20.2521 24.5568,20.2521 C21.5548,20.2521 18.4878,20.8241 15.3558,21.9651 C12.2248,23.1071 9.1558,24.7881 6.1558,27.0061 L1.2618,16.0431 C4.0668,13.6311 7.6558,11.7221 12.0288,10.3181 C16.3988,8.9151 20.9018,8.2131 25.5348,8.2131 C30.2338,8.2131 34.3598,8.9961 37.9158,10.5621 C41.4728,12.1291 44.2128,14.3151 46.1388,17.1201 C48.0628,19.9261 49.0258,23.2231 49.0258,27.0061 C49.0258,30.7911 48.0788,34.0691 46.1878,36.8421 C44.2938,39.6161 41.6188,41.6541 38.1608,42.9591 C42.2058,44.1341 45.3208,46.1741 47.5088,49.0771" id="Fill-9" fill="#222E5C" mask="url(#mask-2)"></path>
                        <path d="M63.1758,75.0449 C63.2708,75.0449 63.3658,74.9489 63.4608,74.9489 C63.5558,75.0449 63.6508,75.0449 63.6508,75.1399 L65.0738,76.2779 C67.2568,77.7969 69.5348,78.6509 71.2428,79.1249 L74.8498,79.5999 L75.1348,79.5999 L75.0388,79.3159 L74.2798,77.7019 L73.0458,75.5189 L71.1488,72.1969 L71.0538,72.0079 C71.1488,71.9119 71.2428,71.9119 71.2428,71.8169 L72.5718,70.7739 C76.8428,67.1669 79.4998,61.7579 79.4998,55.6839 C79.4998,44.7699 70.6738,35.7529 59.7598,35.7529 C48.9408,35.7529 40.0188,44.5789 40.0188,55.5889 C40.0188,66.5979 48.8448,75.5189 59.7598,75.5189 L59.8548,75.5189 C60.7078,75.3289 63.1758,75.0449 63.1758,75.0449" id="Fill-10" fill="#FF7D00" mask="url(#mask-2)"></path>
                        <path d="M57.249,65.958 C57.249,64.925 58.075,64.099 59.108,64.099 C60.142,64.099 60.969,64.925 60.969,65.958 C60.969,66.992 60.142,67.767 59.108,67.767 C58.075,67.767 57.249,66.94 57.249,65.958 L57.249,65.958 Z M57.197,59.448 C57.145,57.484 58.592,56.245 59.832,54.901 C60.813,53.868 61.795,52.783 61.795,51.388 C61.795,49.838 60.762,48.96 59.315,48.96 C58.127,48.96 56.938,49.58 56.163,50.613 L53.27,47.927 C54.665,46.17 57.042,45.085 59.625,45.085 C63.087,45.085 66.187,47.048 66.187,51.13 C66.187,53.558 64.844,55.16 63.449,56.503 C62.157,57.691 60.969,58.621 60.865,59.758 L60.813,60.998 L57.197,60.998 L57.197,59.448 Z" id="Fill-11" fill="#FFFFFF" mask="url(#mask-2)"></path>
                    </g>
                </g>
            </g>
        </g>
    </g>
</svg>

<svg width="80" height="80" viewBox="0 0 80 80" xmlns="http://www.w3.org/2000/svg" xmlns:xlink="http://www.w3.org/1999/xlink"><title>illu</title><defs><path id="a" d="M0 80h80V0H0z"/></defs><g fill="none" fill-rule="evenodd"><path d="M80 40c0 22.092-17.908 40-40 40S0 62.092 0 40 17.908 0 40 0s40 17.908 40 40" fill="#C2F0EB"/><path d="M52.92 28.7c.042.04.122.08.162.12l-.08.161-1.37 2.417-.886 1.612-.644 1.208-.08.201h.2l2.619-.363a13.186 13.186 0 0 0 4.39-2.053l1.047-.806a.548.548 0 0 1 .162-.12c.08 0 .12.04.202.04l2.417.2h.04c7.774 0 14.098-6.324 14.098-14.179C75.197 9.284 68.873 3 61.099 3c-7.775 0-14.1 6.324-14.1 14.178 0 4.311 1.935 8.178 4.956 10.756l.966.765z" fill="#FFF"/><mask id="b" fill="#fff"><use xlink:href="#a"/></mask><path fill="#FF7D00" mask="url(#b)" d="M54 11.853h5.226v-3H54z"/><path fill="#222E5C" mask="url(#b)" d="M54 19.003h17.716v-3H54zM54 26.153h12v-3H54zM47.509 49.077c2.186 2.903 3.278 6.477 3.278 10.717 0 6.135-2.316 10.963-6.95 14.486-4.633 3.524-10.93 5.285-18.89 5.285-4.828 0-9.46-.702-13.897-2.104-4.438-1.403-8.026-3.31-10.767-5.726l4.895-10.962c6.197 4.502 12.56 6.753 19.085 6.753 4.24 0 7.324-.734 9.249-2.202 1.924-1.468 2.888-3.8 2.888-6.998 0-3.066-.964-5.3-2.888-6.705-1.925-1.402-5.008-2.104-9.25-2.104H14.28v-11.94h8.32c4.045 0 7.047-.7 9.004-2.105 1.957-1.403 2.936-3.539 2.936-6.412 0-2.87-.866-5.055-2.594-6.556-1.73-1.5-4.193-2.252-7.39-2.252-3.001 0-6.068.572-9.2 1.713-3.131 1.142-6.2 2.823-9.2 5.041L1.262 16.043c2.805-2.412 6.394-4.32 10.767-5.725a43.92 43.92 0 0 1 13.506-2.105c4.699 0 8.825.783 12.38 2.35 3.558 1.566 6.298 3.752 8.224 6.557 1.924 2.806 2.887 6.103 2.887 9.886 0 3.785-.947 7.063-2.838 9.836-1.894 2.774-4.57 4.812-8.027 6.117 4.045 1.175 7.16 3.215 9.348 6.118"/><path d="M63.176 75.045c.095 0 .19-.096.285-.096.095.096.19.096.19.19l1.423 1.139c2.183 1.519 4.46 2.373 6.169 2.847l3.607.475h.285l-.096-.284-.76-1.614-1.233-2.183-1.897-3.322-.095-.19c.095-.095.189-.095.189-.19l1.329-1.043c4.27-3.607 6.928-9.016 6.928-15.09 0-10.914-8.826-19.931-19.74-19.931-10.82 0-19.741 8.826-19.741 19.836 0 11.009 8.826 19.93 19.74 19.93h.096c.853-.19 3.32-.474 3.32-.474" fill="#FF7D00" mask="url(#b)"/><path d="M57.249 65.958c0-1.033.826-1.859 1.859-1.859 1.034 0 1.861.826 1.861 1.859 0 1.034-.827 1.809-1.861 1.809-1.033 0-1.859-.827-1.859-1.809zm-.052-6.51c-.052-1.964 1.395-3.203 2.635-4.547.981-1.033 1.963-2.118 1.963-3.513 0-1.55-1.033-2.428-2.48-2.428-1.188 0-2.377.62-3.152 1.653l-2.893-2.686c1.395-1.757 3.772-2.842 6.355-2.842 3.462 0 6.562 1.963 6.562 6.045 0 2.428-1.343 4.03-2.738 5.373-1.292 1.188-2.48 2.118-2.584 3.255l-.052 1.24h-3.616v-1.55z" fill="#FFF" mask="url(#b)"/></g></svg>
